X:30
T:Boys of Malin, The
R:reel
Z:Transcribed by Dave Marshall
M:C|
K:A
|:ABcd eAce | f2df edcB | ABcd eAce |1 fdBc d2cB :|2 fdBc defg
|:aA (3AAA cAce | ~a3g fefg |1 aA (3AAA cAce | dcBc defg :|2
afge fdec|dfBc d2cB |:A2ce Aece | Aece d2cB | A2ce Aece | fdBc d2cB:|
